brandFactory_export/3.Masa/Flecha Abajo Izquierda_3Masa.svg

<?xml version="1.0" encoding="UTF-8"?>
<svg width="24px" height="24px" viewBox="0 0 24 24" version="1.1" xmlns="http://www.w3.org/2000/svg" xmlns:xlink="http://www.w3.org/1999/xlink">
    <title>3.Masa/Flecha Abajo Izquierda_3Masa</title>
    <g id="Symbols" stroke="none" stroke-width="1" fill="none" fill-rule="evenodd">
        <g id="3.Masa/Flecha-Abajo-Izquierda_3Masa" fill="#5CB615" fill-rule="nonzero">
            <path d="M14.4571429,2.01680672 L14.4840336,2.01680672 C14.9579832,2.02352941 15.4184874,2.2487395 15.8554622,2.68907563 L21.912605,8.71932773 L21.9327731,8.7394958 C22.3159664,9.15630252 22.4605042,9.58991597 22.3663866,10.0336134 C22.2789916,10.4369748 22.0033613,10.7596639 21.7411765,11.0218487 L21.7243697,11.0386555 L15.5865546,16.8134454 L18.6823529,19.9092437 L18.692437,19.9193277 C19.0722689,20.3159664 19.1831933,20.9915966 18.9546218,21.5260504 C18.7428571,22.0235294 18.2756303,22.3193277 17.707563,22.3193277 L3.19663866,22.3193277 C2.8605042,22.3428571 2.55798319,22.2352941 2.33613445,22.0134454 C2.11428571,21.7915966 2.00672269,21.4857143 2.03361345,21.1529412 L2.04033613,6.57815126 C2.02689076,6.08067227 2.31932773,5.62689076 2.77647059,5.43193277 C3.32436975,5.18655462 4.03361345,5.29747899 4.46386555,5.6907563 L4.48403361,5.70756303 L7.33781513,8.56134454 L13.0857143,2.67563025 L13.092437,2.66890756 C13.5193277,2.23529412 13.9798319,2.01680672 14.4571429,2.01680672 Z" id="Path"></path>
        </g>
    </g>
</svg>

<svg width="24" height="24" viewBox="0 0 24 24" xmlns="http://www.w3.org/2000/svg"><path d="M14.457 2.017h.027c.474.007.934.232 1.371.672l6.058 6.03.02.02c.383.417.528.85.433 1.295-.087.403-.363.726-.625.988l-.017.017-6.137 5.774 3.095 3.096.01.01c.38.397.491 1.073.263 1.607-.212.498-.68.793-1.247.793H3.197a1.082 1.082 0 01-.86-.306 1.072 1.072 0 01-.303-.86L2.04 6.578a1.21 1.21 0 01.736-1.146c.548-.245 1.258-.135 1.688.259l.02.017L7.338 8.56l5.748-5.885.006-.007c.427-.434.888-.652 1.365-.652z" fill="#5CB615" fill-rule="nonzero"/></svg>
